assets/img/braze_icons/channel-content-cards.svg

<svg fill="none" height="24" viewBox="0 0 24 24" width="24" xmlns="http://www.w3.org/2000/svg"><path clip-rule="evenodd" d="m15.8385 1h-7.67704c-.52712-.000015-.98193-.000029-1.35648.03057-.39535.0323-.78857.10362-1.16695.29641-.56448.28762-1.02343.74657-1.31105 1.31105-.19279.37838-.26411.7716-.29641 1.16695-.0306.37455-.03059.82929-.03057 1.35641v13.67711c-.00002.5272-.00003.982.03057 1.3565.0323.3954.10362.7886.29641 1.167.28762.5645.74657 1.0234 1.31105 1.311.37838.1928.7716.2641 1.16695.2964.37456.0306.82932.0306 1.35646.0306h7.67716c.5271 0 .9819 0 1.3564-.0306.3954-.0323.7886-.1036 1.167-.2964.5645-.2876 1.0234-.7465 1.311-1.311.1928-.3784.2641-.7716.2964-1.167.0306-.3745.0306-.8292.0306-1.3563v-13.67722c0-.52709 0-.98197-.0306-1.3565-.0323-.39535-.1036-.78857-.2964-1.16695-.2876-.56448-.7465-1.02343-1.311-1.31105-.3784-.19279-.7716-.26411-1.167-.29641-.3745-.030599-.8293-.030585-1.3565-.03057zm-3.8385 15c-.8284 0-1.5.6716-1.5 1.5s.6716 1.5 1.5 1.5 1.5-.6716 1.5-1.5-.6716-1.5-1.5-1.5zm-5.45399-12.89101c.04944-.02519.15016-.06287.42183-.08506.28333-.02315.65561-.02393 1.23216-.02393h7.6c.5766 0 .9488.00078 1.2322.02393.2716.02219.3723.05987.4218.08506.1882.09588.3411.24886.437.43702.0252.04944.0629.15016.0851.42183.0231.28333.0239.65561.0239 1.23216v.8h-12v-.8c0-.57655.00078-.94883.02393-1.23216.02219-.27167.05987-.37239.08506-.42183.09588-.18816.24886-.34114.43702-.43702zm11.45399 4.89101h-12v3h12z" fill="#801ed7" fill-rule="evenodd"/></svg>

<svg width="24" height="24" viewBox="0 0 24 24" fill="none" xmlns="http://www.w3.org/2000/svg">
<path fill-rule="evenodd" clip-rule="evenodd" d="M15.8385 1H8.16146C7.63434 0.999985 7.17953 0.999971 6.80498 1.03057C6.40963 1.06287 6.01641 1.13419 5.63803 1.32698C5.07355 1.6146 4.6146 2.07355 4.32698 2.63803C4.13419 3.01641 4.06287 3.40963 4.03057 3.80498C3.99997 4.17953 3.99998 4.63427 4 5.16139V18.8385C3.99998 19.3657 3.99997 19.8205 4.03057 20.195C4.06287 20.5904 4.13419 20.9836 4.32698 21.362C4.6146 21.9265 5.07355 22.3854 5.63803 22.673C6.01641 22.8658 6.40963 22.9371 6.80498 22.9694C7.17954 23 7.6343 23 8.16144 23H15.8386C16.3657 23 16.8205 23 17.195 22.9694C17.5904 22.9371 17.9836 22.8658 18.362 22.673C18.9265 22.3854 19.3854 21.9265 19.673 21.362C19.8658 20.9836 19.9371 20.5904 19.9694 20.195C20 19.8205 20 19.3658 20 18.8387V5.16148C20 4.63439 20 4.17951 19.9694 3.80498C19.9371 3.40963 19.8658 3.01641 19.673 2.63803C19.3854 2.07355 18.9265 1.6146 18.362 1.32698C17.9836 1.13419 17.5904 1.06287 17.195 1.03057C16.8205 0.999971 16.3657 0.999985 15.8385 1ZM12 16C11.1716 16 10.5 16.6716 10.5 17.5C10.5 18.3284 11.1716 19 12 19C12.8284 19 13.5 18.3284 13.5 17.5C13.5 16.6716 12.8284 16 12 16ZM6.54601 3.10899C6.59545 3.0838 6.69617 3.04612 6.96784 3.02393C7.25117 3.00078 7.62345 3 8.2 3H15.8C16.3766 3 16.7488 3.00078 17.0322 3.02393C17.3038 3.04612 17.4045 3.0838 17.454 3.10899C17.6422 3.20487 17.7951 3.35785 17.891 3.54601C17.9162 3.59545 17.9539 3.69617 17.9761 3.96784C17.9992 4.25117 18 4.62345 18 5.2V6H6V5.2C6 4.62345 6.00078 4.25117 6.02393 3.96784C6.04612 3.69617 6.0838 3.59545 6.10899 3.54601C6.20487 3.35785 6.35785 3.20487 6.54601 3.10899ZM18 8H6V11H18V8Z" fill="#801ED7"/>
</svg>
